X: 6703
T: Ceo Sa Cnoc
R: reel
M: 4/4
K: Adorian
||eABA eAge|dGBG dGBd|eABA e2ge|dBGA BAA2|
eA A2 eAdB|G2BG dGBd|eA A2 efge|dBGA BA A2||
EAAG EAAG|EAAG edBd|EAA2 GABd|(3efe dc BGG2|
EAAB GABG|AGEF G4|BddB cBAG|EGed BA A2||

